images/footer-bg.svg

<svg width="4069" height="598" fill="none" xmlns="http://www.w3.org/2000/svg"><g filter="url(#a)"><path fill-rule="evenodd" clip-rule="evenodd" d="m44 176.5 82.938 21.25c82.937 21.25 248.812 63.75 414.687 42.5s331.75-127.5 497.625-85c165.87 42.5 331.75-69.569 497.62-69.569 165.88 0 331.75 133.319 497.63 69.569C2200.38 91.5 2366.25 134 2532.12 134c165.88 0 331.75-42.5 497.63 21.25 165.87 63.75 331.75 107.023 497.63 107.023 165.87 0 331.74-43.273 414.68-128.273L4025 49v510H44V176.5z" fill="url(#b)"/></g><defs><linearGradient id="b" x1="2020.84" y1="573.032" x2="2020.84" y2="63.032" gradientUnits="userSpaceOnUse"><stop stop-color="#1D1359"/><stop offset=".135" stop-color="#261D5C"/><stop offset=".865" stop-color="#073C80"/></linearGradient><filter id="a" x="0" y="0" width="4069" height="598" filterUnits="userSpaceOnUse" color-interpolation-filters="sRGB"><feFlood flood-opacity="0" result="BackgroundImageFix"/><feColorMatrix in="SourceAlpha" values="0 0 0 0 0 0 0 0 0 0 0 0 0 0 0 0 0 0 127 0" result="hardAlpha"/><feOffset dy="-5"/><feGaussianBlur stdDeviation="22"/><feComposite in2="hardAlpha" operator="out"/><feColorMatrix values="0 0 0 0 0 0 0 0 0 0 0 0 0 0 0 0 0 0 0.25 0"/><feBlend in2="BackgroundImageFix" result="effect1_dropShadow_674_39"/><feBlend in="SourceGraphic" in2="effect1_dropShadow_674_39" result="shape"/></filter></defs></svg>

<svg width="4069" height="598" viewBox="0 0 4069 598" fill="none" xmlns="http://www.w3.org/2000/svg">
<g filter="url(#filter0_d_674_39)">
<path fill-rule="evenodd" clip-rule="evenodd" d="M44 176.5L126.938 197.75C209.875 219 375.75 261.5 541.625 240.25C707.5 219 873.375 112.75 1039.25 155.25C1205.12 197.75 1371 85.6814 1536.87 85.6814C1702.75 85.6814 1868.62 219 2034.5 155.25C2200.38 91.5 2366.25 134 2532.12 134C2698 134 2863.87 91.5 3029.75 155.25C3195.62 219 3361.5 262.273 3527.38 262.273C3693.25 262.273 3859.12 219 3942.06 134L4025 49V559H3942.06C3859.12 559 3693.25 559 3527.38 559C3361.5 559 3195.62 559 3029.75 559C2863.87 559 2698 559 2532.12 559C2366.25 559 2200.38 559 2034.5 559C1868.62 559 1702.75 559 1536.87 559C1371 559 1205.12 559 1039.25 559C873.375 559 707.5 559 541.625 559C375.75 559 209.875 559 126.938 559H44L44 176.5Z" fill="url(#paint0_linear_674_39)"/>
</g>
<defs>
<filter id="filter0_d_674_39" x="0" y="0" width="4069" height="598" filterUnits="userSpaceOnUse" color-interpolation-filters="sRGB">
<feFlood flood-opacity="0" result="BackgroundImageFix"/>
<feColorMatrix in="SourceAlpha" type="matrix" values="0 0 0 0 0 0 0 0 0 0 0 0 0 0 0 0 0 0 127 0" result="hardAlpha"/>
<feOffset dy="-5"/>
<feGaussianBlur stdDeviation="22"/>
<feComposite in2="hardAlpha" operator="out"/>
<feColorMatrix type="matrix" values="0 0 0 0 0 0 0 0 0 0 0 0 0 0 0 0 0 0 0.25 0"/>
<feBlend mode="normal" in2="BackgroundImageFix" result="effect1_dropShadow_674_39"/>
<feBlend mode="normal" in="SourceGraphic" in2="effect1_dropShadow_674_39" result="shape"/>
</filter>
<linearGradient id="paint0_linear_674_39" x1="2020.84" y1="573.032" x2="2020.84" y2="63.0315" gradientUnits="userSpaceOnUse">
<stop stop-color="#1D1359"/>
<stop offset="0.135" stop-color="#261D5C"/>
<stop offset="0.865" stop-color="#073C80"/>
</linearGradient>
</defs>
</svg>
